common/src/main/resources/icons/plugins/package/stackOverflow.svg

<svg xmlns="http://www.w3.org/2000/svg" width="16" height="16" data-big="true" viewBox="0 0 24 24"><path fill="#FF8A65" d="M17.36 20.2v-5.38h1.79V22H3v-7.18h1.8v5.38zM6.77 14.32l.37-1.76 8.79 1.85-.37 1.76zm1.16-4.21.76-1.61 8.14 3.78-.76 1.62zm2.26-3.99 1.15-1.38 6.9 5.76-1.15 1.37zm4.45-4.25L20 9.08l-1.44 1.07-5.36-7.21zM6.59 18.41v-1.8h8.98v1.8z"/></svg>

<!--
  - The MIT License (MIT)
  -
  - Copyright (c) 2015-2024 Elior "Mallowigi" Boukhobza
  -
  - Permission is hereby granted, free of charge, to any person obtaining a copy
  - of this software and associated documentation files (the "Software"), to deal
  - in the Software without restriction, including without limitation the rights
  - to use, copy, modify, merge, publish, distribute, sublicense, and/or sell
  - copies of the Software, and to permit persons to whom the Software is
  - furnished to do so, subject to the following conditions:
  -
  - The above copyright notice and this permission notice shall be included in all
  - copies or substantial portions of the Software.
  -
  - THE SOFTWARE IS PROVIDED "AS IS", WITHOUT WARRANTY OF ANY KIND, EXPRESS OR
  - IMPLIED, INCLUDING BUT NOT LIMITED TO THE WARRANTIES OF MERCHANTABILITY,
  - FITNESS FOR A PARTICULAR PURPOSE AND NONINFRINGEMENT. IN NO EVENT SHALL THE
  - AUTHORS OR COPYRIGHT HOLDERS BE LIABLE FOR ANY CLAIM, DAMAGES OR OTHER
  - LIABILITY, WHETHER IN AN ACTION OF CONTRACT, TORT OR OTHERWISE, ARISING FROM,
  - OUT OF OR IN CONNECTION WITH THE SOFTWARE OR THE USE OR OTHER DEALINGS IN THE
  - SOFTWARE.
  -->


<svg data-big="true" xmlns="http://www.w3.org/2000/svg" version="1.1" width="16px" height="16px" viewBox="0 0 24 24">
  <path fill="#FF8A65"
        d="M17.36,20.2V14.82H19.15V22H3V14.82H4.8V20.2H17.36M6.77,14.32L7.14,12.56L15.93,14.41L15.56,16.17L6.77,14.32M7.93,10.11L8.69,8.5L16.83,12.28L16.07,13.9L7.93,10.11M10.19,6.12L11.34,4.74L18.24,10.5L17.09,11.87L10.19,6.12M14.64,1.87L20,9.08L18.56,10.15L13.2,2.94L14.64,1.87M6.59,18.41V16.61H15.57V18.41H6.59Z"/>
</svg>
